icons/rss3-circle.svg

<svg xmlns="http://www.w3.org/2000/svg" fill="none" viewBox="0 0 1024 1024">
  <circle cx="512" cy="512" r="512" fill="#1477FB"/>
  <path fill="#fff" d="M810.274 803.422c-3.065 4.966-8.321 8.127-14.015 8.127H672.75c-6.131 0-11.825-3.612-14.453-9.481l-70.076-145.373c-4.818-9.481-14.453-15.801-24.965-15.801H349.962c-4.379 0-7.883 3.612-7.883 8.126v146.276c0 9.48-7.446 16.704-16.205 16.704h-97.669c-9.197 0-16.205-7.675-16.205-16.704V523.512c0-9.48 7.446-16.704 16.205-16.704h328.482c11.825 0 21.898-9.932 21.898-22.573V368.659c0-12.189-9.635-22.573-21.898-22.573H228.205c-9.197 0-16.205-7.675-16.205-16.705V228.704c0-9.481 7.446-16.704 16.205-16.704h343.811c9.197 0 16.205 7.675 16.205 16.704v79.91c0 12.19 9.635 22.573 21.899 22.573h82.339c9.198 0 16.205 7.675 16.205 16.705v157.11c0 9.481-7.445 16.705-16.205 16.705H610.12c-11.826 0-21.899 9.932-21.899 22.573v57.788c0 15.801 12.263 28.442 27.592 28.442h108.618c6.132 0 11.826 3.612 14.453 9.481l71.39 147.63c2.628 5.417 2.19 11.286-.876 16.253z"/>
</svg>

<svg viewBox="0 0 1024 1024" fill="none" xmlns="http://www.w3.org/2000/svg">
  <circle cx="512" cy="512" r="512" fill="#1477FB" />
  <path
    d="M810.274 803.422C807.209 808.388 801.953 811.549 796.259 811.549H672.75C666.619 811.549 660.925 807.937 658.297 802.068L588.221 656.695C583.403 647.214 573.768 640.894 563.256 640.894H349.962C345.583 640.894 342.079 644.506 342.079 649.02V795.296C342.079 804.776 334.633 812 325.874 812H228.205C219.008 812 212 804.325 212 795.296V523.512C212 514.032 219.446 506.808 228.205 506.808H556.687C568.512 506.808 578.585 496.876 578.585 484.235V368.659C578.585 356.47 568.95 346.086 556.687 346.086H228.205C219.008 346.086 212 338.411 212 329.381V228.704C212 219.223 219.446 212 228.205 212H572.016C581.213 212 588.221 219.675 588.221 228.704V308.614C588.221 320.804 597.856 331.187 610.12 331.187H692.459C701.657 331.187 708.664 338.862 708.664 347.892V505.002C708.664 514.483 701.219 521.707 692.459 521.707H610.12C598.294 521.707 588.221 531.639 588.221 544.28V602.068C588.221 617.869 600.484 630.51 615.813 630.51H724.431C730.563 630.51 736.257 634.122 738.884 639.991L810.274 787.621C812.902 793.038 812.464 798.907 809.398 803.874L810.274 803.422Z"
    fill="white" />
</svg>
